X: 2108
T: Çözmek Elinde Değil
C: Sadettin Kaynak
O: Turkey
F: http://compmusic.upf.edu/node/140
N: hicazkar--sarki--duyek--cozmek_elinde--sadettin_kaynak
N: makam= hicazkar
N: form= sarki
N: usul= duyek = 8/4
M: 8/4
L: 1/16
K: C _1/4B _7/8e _7/8A ^f
Q: 1/4=156
%%MIDI tuningsystem comma53
z2 g2 a2 b2 c'd' bc' ab g2  | z2 fa g2 f2 ef ed c3/2B/ c2  | 
w:   |   | 
z2 g2 a2 c'2 b2 a2 g2 fg  | a8 a2 ga ba g2  | \
w:   |   | 
z2 g6 g2 fg ag f2  | 
w:   | 
z2 f6 f2 ef gf e2  | z2 e6 e2 de fe d2  | \
w:   |   | 
z2 d6 d2 cd ed c2  | 
w:   | 
z2 B2 c2 d2 e2 f2 g4  | z2 fa g2 f2 ef ed c3/2B/ c2  | \
w:   |   | 
z2 G2 A2 c2 B2 A2 G2 F2  | 
w:   | 
z2 G4 F2 EF EF G4  | G2 g6 g4 gg3  | \
w:   |  *  Çöz mek_ e lin  | 
z2 ag f2 g2 a2 fg a2 z2  | 
w:  de  *  *  de ğil  SAZ  | 
z2 g4 a2 b4 c'2 a2  | g2 gf e2 f2 g2 fe dc BA  | \
w:  gön lü mü  sen  |  *  den  *  *  ka dın   SAZ  | 
G2 g6 g4 gg3  | 
w:  *  Çöz mek_ e lin  | 
z2 ag f2 g2 a2 fg a2 z2  | z2 g4 a2 b4 c'2 a2  | \
w:  de  *  *  de ğil  SAZ  |  gön lü mü  sen  | 
g2 gf e2 f2 g3d ef g2  | 
w:  *  den  *  *  ka dın   SAZ  | 
a2 a2 z4 z4 g2 g2  | g2 gf e2 ed d8  | \
w:  Be nim  sa na   |  *  bağ *  *  la *  nan   | 
z2 d4 e2 f4 g4  | z2 e4 ed cz2c d_1/4e =f2  | 
w:  sen  be ni  bağ  |  la ma *  dın   SAZ  | 
z2 =f4 f2 f4 f2 (3ede  | =f2 g4 f2 e2 ed c4  | \
w:  Düş se  düş se   |  di lim *  den   | 
z2 c4 d2 e2 d2 =f2 e2  | 
w:  bağ rı ma  *  dü  | 
d2 ed c2 cB Bz2e dc c2  | .B2 .c2 z4 z4 .d2 .d2  | \
w:  *  şer  *  *  a *  dın   SAZ  |  Be nim  sa na   | 
z2 e4 f2 g2 fe dc BA  | 
w:  bağ la nan   | 
GF G4 A2 B4 c4  | c2 BA G2 F2 Gz2c Bd c2  | \
w:  *  *  sen  be ni  bağ  |  *  la *  ma *  dın   SAZ  | 
.B2 .c2 z4 z4 .d2 .d2  | 
w:  Be nim  sa na   | 
z2 e4 f2 g2 fe dc BA  | GF G4 A2 B4 c4  | \
w:  bağ la nan   |  *  *  sen  be ni  bağ  | 
c2 BA G2 F2 G3F EF G2  | 
w:  *  la *  ma *  dın   *  SAZ  | 
z2 g2 a2 b2 c'd' bc' ab g2  | z2 fa g2 f2 ef ed c3/2B/ c2  | 
w:   |   | 
z2 g2 a2 c'2 b2 a2 g2 fg  | a8 a2 ga ba g2  | \
w:   |   | 
z2 g6 g2 fg ag f2  | 
w:   | 
z2 f6 f2 ef gf e2  | z2 e6 e2 de fe d2  | \
w:   |   | 
z2 d6 d2 cd ed c2  | 
w:   | 
z2 B2 c2 d2 e2 f2 g4  | z2 fa g2 f2 ef ed c3/2B/ c2  | \
w:   |   | 
z2 G2 A2 c2 B2 A2 G2 F2  | 
w:   | 
z2 G4 F2 EF EF G4  | G2 g6 g4 gg3  | \
w:   |  *  Çöz mek_ e lin  | 
z2 ag f2 g2 a2 fg a2 z2  | 
w:  de  *  *  de ğil  SAZ  | 
z2 g4 a2 b4 c'2 a2  | g2 gf e2 f2 g2 fe dc BA  | \
w:  gön lü mü  sen  |  *  den  *  *  ka dın   SAZ  | 
G2 g6 g4 gg3  | 
w:  *  Çöz mek_ e lin  | 
z2 ag f2 g2 a2 fg a2 z2  | z2 g4 a2 b4 c'2 a2  | \
w:  de  *  *  de ğil  SAZ  |  gön lü mü  sen  | 
g2 gf e2 f2 g3d ef g2  | 
w:  *  den  *  *  ka dın   SAZ  | 
a2 a2 z4 z4 g2 g2  | g2 gf e2 ed d8  | \
w:  Be nim  sa na   |  *  bağ *  *  la *  nan   | 
z2 d4 e2 f4 g4  | z2 e4 ed cz2c d_1/4e =f2  | 
w:  sen  be ni  bağ  |  la ma *  dın   SAZ  | 
z2 =f4 f2 f4 f2 (3ede  | =f2 g4 f2 e2 ed c4  | \
w:  Düş se  düş se   |  di lim *  den   | 
z2 c4 d2 e2 d2 =f2 e2  | 
w:  bağ rı ma  *  dü  | 
d2 ed c2 cB Bz2e dc c2  | .B2 .c2 z4 z4 .d2 .d2  | \
w:  *  şer  *  *  a *  dın   SAZ  |  Be nim  sa na   | 
z2 e4 f2 g2 fe dc BA  | 
w:  bağ la nan   | 
GF G4 A2 B4 c4  | c2 BA G2 F2 Gz2c Bd c2  | \
w:  *  *  sen  be ni  bağ  |  *  la *  ma *  dın   SAZ  | 
.B2 .c2 z4 z4 .d2 .d2  | 
w:  Be nim  sa na   | 
z2 e4 f2 g2 fe dc BA  | GF G4 A2 B4 c4  | \
w:  bağ la nan   |  *  *  sen  be ni  bağ  | 
c2 BA G2 F2 G3F EF G2  | 
w:  *  la *  ma *  dın   *  SAZ  | 
|


